X: 100320
T: DAISY HORNPIPE
C: By James Francis, Edinburgh, 1884
R: hornpipe, reel
B: K\"ohler's Violin Repository, v.3, 1885 p.227 #2
F: http://www.archive.org/details/klersviolinrepos03rugg
Z: 2012 John Chambers <jc:trillian.mit.edu>
M: C|
L: 1/8
K: F
{d}(uc>B) |\
cagf egfd | ^cedB AGFE | (FG)AB (cd)ef | (g^f)ga (ge)_ed |
cagf egfd | ^cedB AGFE | (FG)AB (cd)ef |[1 ^fgbe =f2:|[2 ^fgbe =f2^f2 ||
|: (g^f)ga (ge)dc | (=Bd)fb a2g2 | (=Bd)fb a2g2 | (ce)ge' (d'2c'2) |
(g^f)ga (ge)dc | (=Bd)fb a2g2 | (=Bd)fb aged |[1 cGA=B cdef :|[2 (.c2 "_D.C."v.[b4c4]) |]

%%sep 2 1 500

